X:83
T:Abe's Retreat (II)
C:From Chance McCoy
M:4/4
L:1/8
S:http://youtu.be/AfHcz3afjs4
Z:abc-transcription Josh Larios <hades@elsewhere.org>, 2015.10.16
N:Fiddle in cross-A tuning, allowing the B part to be played an octave low on occasion.
N:# indicates the note should be half-sharp, or a partial slide up
N:* indicates a pulsed bow
G:Key: AMix
K:AMix
[EA][GA] |: [AA]2 [AA]2 {G}[AA]2-[AA]A | [ce]2 [de]2 {d}[ee]2-[ee]A | A2 A2 {[EA]}[EB]2-[EB]B | [A,G][A,E]- [A,E][A,G] [A,E]2 [A,G][A,A]- | 
[A,A]2  [A,A][A,G] {G}[AA]2  [A]A | [Ec][EA] [Ec][Ed] [Ae]2 [Ae][Ag] | [Aa][Ae] [Aa][Ae] "^#"[Ag]2 ed |1 "^#"[Ec][EA]-[EA]2 [EA]2 [EA][GA] :|2  "^#"[Ec][EA]-"^*"[EA]2 [EA]2 [Ae][Ag] |
|: [Aa]4 [Aa]2 [Ag]2- | [Ag]"^Continue drone on A throughout"e fd e2 eg | a2 a2 b2- ba | ge- eg e2 eg | 
a2 ab ag ef | ge fd e2 ee | e2 ed cd ed |1 cA- A2 A2 eg :|2 cA AA A2 [EA][GA] |
 
